X: 11005
T: ALLEN McBRIDE
C: Bob McQuillen 24 May'01
B: Bob's Note Book 11 #95
%R: waltz
Z: 2019 John Chambers <jc:trillian.mit.edu>
M: 3/4
L: 1/4
K: G
D \
| "G"GDG | "D7"A>GA | "G"Bcd | "C"d2c \
| "G"B>cd | "Em"dBG | "Am"c>Bc | "D7"AFD |\
| "G"GDG | "D7"AGA | "G"Bcd | "C"edc |
| "G"B3 | "D7"AGF | "G"G3- | G2 :|\
|: d \
| "G"g3 | "Em"gfg | "Am"ece | "D7"def \
| "G"g3 | "Em"gdB | "Am"cde | "D7"ABc |
| "G"B3 | "Bm"B3 | "Em"Bdc | "C"Bcd | "G"B3 |\
["all except" "D7"A3 | "G"G3- | G2 :|\
["last time" "D7"d3 | "G"g3- | g2 |]
%%begintext align
%% Jane (McBride) Orzechowski
%% is the wonderful fiddler in our new band, "Old New England",
%% and she recently lost her dear brother. So this is Allen's
%% tune, in Memoriam, and with much love from Bob.
%%endtext

% %newpage
% %vskip 5cm
% %center --- 11006 spacer ---
% %sep 1 1 500

%%sep 1 1 500

%%sep 1 1 500

